logo/openneuroscience_logo_dark.svg

<?xml version="1.0" encoding="UTF-8" standalone="no"?>
<svg
   xmlns:dc="http://purl.org/dc/elements/1.1/"
   xmlns:cc="http://creativecommons.org/ns#"
   xmlns:rdf="http://www.w3.org/1999/02/22-rdf-syntax-ns#"
   xmlns:svg="http://www.w3.org/2000/svg"
   xmlns="http://www.w3.org/2000/svg"
   xmlns:sodipodi="http://sodipodi.sourceforge.net/DTD/sodipodi-0.dtd"
   xmlns:inkscape="http://www.inkscape.org/namespaces/inkscape"
   width="512"
   height="512"
   viewBox="0 0 512 512"
   version="1.1"
   id="svg15"
   sodipodi:docname="openneuroscience_logo_dark.svg"
   style="fill:none"
   inkscape:export-filename="/home/andre/repositories/openneuroscience/landing_page/assets/images/icon1.png"
   inkscape:export-xdpi="376"
   inkscape:export-ydpi="376"
   inkscape:version="0.92.5 (2060ec1f9f, 2020-04-08)">
  <metadata
     id="metadata19">
    <rdf:RDF>
      <cc:Work
         rdf:about="">
        <dc:format>image/svg+xml</dc:format>
        <dc:type
           rdf:resource="http://purl.org/dc/dcmitype/StillImage" />
        <dc:title />
      </cc:Work>
    </rdf:RDF>
  </metadata>
  <sodipodi:namedview
     pagecolor="#ffffff"
     bordercolor="#666666"
     borderopacity="1"
     objecttolerance="10"
     gridtolerance="10"
     guidetolerance="10"
     inkscape:pageopacity="0"
     inkscape:pageshadow="2"
     inkscape:window-width="1920"
     inkscape:window-height="1016"
     id="namedview17"
     showgrid="false"
     inkscape:zoom="3.9732667"
     inkscape:cx="18.813761"
     inkscape:cy="443.0112"
     inkscape:window-x="0"
     inkscape:window-y="27"
     inkscape:window-maximized="1"
     inkscape:current-layer="svg15" />
  <rect
     style="fill:#f2f3f5;fill-opacity:1;stroke-width:0.99854231"
     id="rect23"
     width="511.70834"
     height="511.86627"
     x="0.41700053"
     y="0.13371681" />
  <g
     clip-path="url(#clip0)"
     id="g8"
     transform="matrix(3.9129072,0,0,3.9129072,1.6278896,100.64095)">
    <path
       d="m 84.9158,49.4031 c 4.0796,0 7.4037,3.3237 7.4037,7.4029 v 2.5683 c 0,4.5324 -1.0577,8.6115 -3.173,12.3885 -2.1153,3.777 -5.1373,6.6475 -9.2168,8.9137 -3.9285,2.2661 -8.7636,3.3237 -14.3541,3.3237 -5.5906,0 -10.4257,-1.0576 -14.3541,-3.3237 -3.9285,-2.2662 -6.9504,-5.1367 -9.0658,-8.9137 -2.1153,-3.777 -3.173,-7.8561 -3.173,-12.3885 V 56.806 c 0,-4.0792 3.3241,-7.4029 7.4037,-7.4029 4.0796,0 7.4037,3.3237 7.4037,7.4029 v 2.5683 c 0,2.2662 0.6044,4.2302 1.662,6.0432 1.0577,1.8129 2.5687,3.3237 4.3818,4.3813 1.8132,1.0575 3.7774,1.6618 6.0438,1.6618 2.2665,0 4.2307,-0.6043 6.0439,-1.6618 1.8131,-1.0576 3.3241,-2.5684 4.3818,-4.3813 1.0576,-1.813 1.662,-3.777 1.662,-6.0432 V 56.806 c -0.4533,-4.0792 2.8708,-7.4029 6.9504,-7.4029 z"
       id="path2"
       inkscape:connector-curvature="0"
       style="fill:#495057" />
    <path
       d="M 7.40369,55.8993 C 3.32411,55.8993 0,52.7266 0,48.6475 V 24.6259 C 0,20.0935 1.05767,16.0144 3.17301,12.2374 5.28835,8.46043 8.31027,5.58993 12.3899,3.32374 16.3183,1.05755 21.1534,0 26.7439,0 c 5.5906,0 10.4257,1.05755 14.3541,3.32374 3.9285,2.26619 6.9505,5.13669 9.0658,8.91366 2.1153,3.777 3.173,7.8561 3.173,12.3885 v 2.5683 c 0,4.0792 -3.3241,7.4029 -7.4037,7.4029 -4.0796,0 -7.4037,-3.3237 -7.4037,-7.4029 v -2.5683 c 0,-2.2662 -0.6044,-4.2302 -1.662,-6.0432 -1.0577,-1.8129 -2.5687,-3.3237 -4.3818,-4.3813 -1.8132,-1.0575 -3.7774,-1.6618 -6.0438,-1.6618 -2.2665,0 -4.2307,0.6043 -6.0439,1.6618 -1.8131,1.0576 -3.3241,2.5684 -4.3818,4.3813 -1.0576,1.813 -1.662,3.777 -1.662,6.0432 v 24.0216 c 0.3022,4.0791 -3.0219,7.2518 -6.95041,7.2518 z"
       id="path4"
       inkscape:connector-curvature="0"
       style="fill:#495057" />
    <path
       d="m 84.9158,34.5971 c -4.0796,0 -7.4037,-3.3237 -7.4037,-7.4029 v -2.5683 c 0,-4.5324 1.0577,-8.6115 3.173,-12.3885 C 82.8005,8.46043 85.8224,5.58993 89.902,3.32374 93.8305,1.05755 98.6655,0 104.256,0 c 5.591,0 10.426,1.05755 14.354,3.32374 3.929,2.26619 6.951,5.13669 9.066,8.91366 2.115,3.777 3.173,7.8561 3.173,12.3885 v 24.0216 c 0,4.0791 -3.324,7.4029 -7.404,7.4029 -4.079,0 -7.403,-3.3238 -7.403,-7.4029 V 24.6259 c 0,-2.2662 -0.605,-4.2302 -1.663,-6.0432 -1.057,-1.8129 -2.568,-3.3237 -4.381,-4.3813 -1.813,-1.0575 -3.778,-1.6618 -6.044,-1.6618 -2.267,0 -4.2308,0.6043 -6.044,1.6618 -1.8131,1.0576 -3.3241,2.5684 -4.3817,4.3813 -1.0577,1.813 -1.6621,3.777 -1.6621,6.0432 v 2.5683 c 0.4533,4.0792 -2.8708,7.4029 -6.9504,7.4029 z"
       id="path6"
       inkscape:connector-curvature="0"
       style="fill:#495057" />
  </g>
  <defs
     id="defs13">
    <clipPath
       id="clip0">
      <rect
         width="131"
         height="84"
         id="rect10"
         x="0"
         y="0"
         style="fill:#ffffff" />
    </clipPath>
  </defs>
</svg>

<svg width="131" height="84" viewBox="0 0 131 84" fill="none" xmlns="http://www.w3.org/2000/svg">
<g clip-path="url(#clip0)">
<path d="M84.9158 49.4031C88.9954 49.4031 92.3195 52.7268 92.3195 56.806V59.3743C92.3195 63.9067 91.2618 67.9858 89.1465 71.7628C87.0312 75.5398 84.0092 78.4103 79.9297 80.6765C76.0012 82.9426 71.1661 84.0002 65.5756 84.0002C59.985 84.0002 55.1499 82.9426 51.2215 80.6765C47.293 78.4103 44.2711 75.5398 42.1557 71.7628C40.0404 67.9858 38.9827 63.9067 38.9827 59.3743V56.806C38.9827 52.7268 42.3068 49.4031 46.3864 49.4031C50.466 49.4031 53.7901 52.7268 53.7901 56.806V59.3743C53.7901 61.6405 54.3945 63.6045 55.4521 65.4175C56.5098 67.2304 58.0208 68.7412 59.8339 69.7988C61.6471 70.8563 63.6113 71.4606 65.8777 71.4606C68.1442 71.4606 70.1084 70.8563 71.9216 69.7988C73.7347 68.7412 75.2457 67.2304 76.3034 65.4175C77.361 63.6045 77.9654 61.6405 77.9654 59.3743V56.806C77.5121 52.7268 80.8362 49.4031 84.9158 49.4031Z" fill="#495057"/>
<path d="M7.40369 55.8993C3.32411 55.8993 0 52.7266 0 48.6475V24.6259C0 20.0935 1.05767 16.0144 3.17301 12.2374C5.28835 8.46043 8.31027 5.58993 12.3899 3.32374C16.3183 1.05755 21.1534 0 26.7439 0C32.3345 0 37.1696 1.05755 41.098 3.32374C45.0265 5.58993 48.0485 8.46043 50.1638 12.2374C52.2791 16.0144 53.3368 20.0935 53.3368 24.6259V27.1942C53.3368 31.2734 50.0127 34.5971 45.9331 34.5971C41.8535 34.5971 38.5294 31.2734 38.5294 27.1942V24.6259C38.5294 22.3597 37.925 20.3957 36.8674 18.5827C35.8097 16.7698 34.2987 15.259 32.4856 14.2014C30.6724 13.1439 28.7082 12.5396 26.4418 12.5396C24.1753 12.5396 22.2111 13.1439 20.3979 14.2014C18.5848 15.259 17.0738 16.7698 16.0161 18.5827C14.9585 20.3957 14.3541 22.3597 14.3541 24.6259V48.6475C14.6563 52.7266 11.3322 55.8993 7.40369 55.8993Z" fill="#495057"/>
<path d="M84.9158 34.5971C80.8362 34.5971 77.5121 31.2734 77.5121 27.1942V24.6259C77.5121 20.0935 78.5698 16.0144 80.6851 12.2374C82.8005 8.46043 85.8224 5.58993 89.902 3.32374C93.8305 1.05755 98.6655 0 104.256 0C109.847 0 114.682 1.05755 118.61 3.32374C122.539 5.58993 125.561 8.46043 127.676 12.2374C129.791 16.0144 130.849 20.0935 130.849 24.6259V48.6475C130.849 52.7266 127.525 56.0504 123.445 56.0504C119.366 56.0504 116.042 52.7266 116.042 48.6475V24.6259C116.042 22.3597 115.437 20.3957 114.379 18.5827C113.322 16.7698 111.811 15.259 109.998 14.2014C108.185 13.1439 106.22 12.5396 103.954 12.5396C101.687 12.5396 99.7232 13.1439 97.91 14.2014C96.0969 15.259 94.5859 16.7698 93.5283 18.5827C92.4706 20.3957 91.8662 22.3597 91.8662 24.6259V27.1942C92.3195 31.2734 88.9954 34.5971 84.9158 34.5971Z" fill="#495057"/>
</g>
<defs>
<clipPath id="clip0">
<rect width="131" height="84" fill="white"/>
</clipPath>
</defs>
</svg>
